markets/COMP.svg

<svg width="42" height="42" viewBox="0 0 42 42" fill="none" xmlns="http://www.w3.org/2000/svg">
<circle cx="21" cy="21" r="21" fill="black"/>
<path fill-rule="evenodd" clip-rule="evenodd" d="M11.2037 28.8222C10.5064 28.3956 10.08 27.6362 10.08 26.8206V22.2665C10.08 22.0922 10.1266 21.9242 10.2138 21.7748C10.4846 21.3078 11.0854 21.1491 11.5523 21.423L21.8308 27.4151C22.4316 27.7669 22.802 28.4082 22.802 29.1054V33.8244C22.802 34.0392 22.7428 34.254 22.6308 34.4376C22.2915 34.9917 21.5693 35.166 21.0152 34.8267L11.2037 28.8222ZM26.5249 20.1747C27.1256 20.5265 27.4961 21.1678 27.4961 21.865V31.44C27.4961 31.7233 27.3435 31.9847 27.0976 32.1217L24.8471 33.3887C24.8191 33.4042 24.7879 33.4167 24.7568 33.426V28.1093C24.7568 27.4213 24.3957 26.7832 23.8043 26.4284L14.7772 21.0277V15.0262C14.7772 14.8519 14.8239 14.6838 14.911 14.5344C15.1818 14.0674 15.7826 13.9087 16.2495 14.1826L26.5249 20.1747ZM31.0229 13.1025C31.6268 13.4511 31.9972 14.0986 31.9972 14.7959V28.7817C31.9972 29.068 31.8384 29.3326 31.5863 29.4696L29.454 30.6213V20.8845C29.454 20.1966 29.093 19.5615 28.5047 19.2067L19.2783 13.6721V7.97881C19.2783 7.80449 19.325 7.6364 19.409 7.48699C19.6798 7.02007 20.2806 6.86132 20.7475 7.13213L31.0229 13.1025Z" fill="#00D395"/>
</svg>

<svg xmlns="http://www.w3.org/2000/svg" width="42" height="42" fill="none"><circle cx="21" cy="21" r="21" fill="#000"/><path fill="#00D395" fill-rule="evenodd" d="M11.204 28.822a2.35 2.35 0 0 1-1.124-2.001v-4.555a.977.977 0 0 1 1.472-.844l10.279 5.993c.6.352.971.993.971 1.69v4.72a1.174 1.174 0 0 1-1.787 1.002l-9.811-6.005Zm15.32-8.647c.602.351.972.993.972 1.69v9.575a.78.78 0 0 1-.398.682l-2.25 1.267a.461.461 0 0 1-.091.037v-5.317a1.96 1.96 0 0 0-.953-1.68l-9.027-5.401v-6.002a.977.977 0 0 1 1.472-.844l10.276 5.993Zm4.499-7.073c.604.35.974.997.974 1.694v13.986c0 .286-.159.55-.41.688l-2.133 1.151v-9.736c0-.688-.361-1.324-.95-1.678l-9.226-5.535V7.98a.98.98 0 0 1 1.47-.847l10.275 5.97Z" clip-rule="evenodd"/></svg>
